X:4834
T:On the Rach.
C:Pete Fletcher
O:England
M:4/4
L:1/8
Q:1/4=240
%%ID:00000c52
F: http://www.leeds.ac.uk/music/Info/RRTuneBk/gettune/00000c52.abc
K:BMin
E2E2GFE2 | DEF2E3F | EFG2G2G2 | FEDEF2ED | \
E2E2GFE2 | DEF2E3F | A2G2F2ED | DEF2E2D2::
B3AG2F2 | EFG2A2GA | GAB2GAB2 | GAB2BAGA |\
B3AG2F2 | EFG2F4   | B2A2FED2 |E6D2:||


